;Generated with Cura_SteamEngine 15.05
; Default start code
G28 ; Home extruder
G1 Z15 F100
M107 ; Turn off fan
G90 ; Absolute positioning
M82 ; Extruder in absolute mode
M190 S50
; Activate all used extruder
M104 T0 S208
G92 E0 ; Reset extruder position
; Wait for all used extruders to reach temperature
M109 T0 S208
;Layer count: 40
;LAYER:0
M107
G0 F9000 X77.680 Y77.564 Z0.300
;TYPE:SKIRT
G1 F1800 X78.612 Y76.678 E0.06416
G1 X78.909 Y76.397 E0.08455
G1 X79.919 Y75.524 E0.15116
G1 X81.230 Y74.479 E0.23480
G1 X82.582 Y73.506 E0.31790
G1 X83.212 Y73.084 E0.35573
G1 X84.329 Y72.375 E0.42174
G1 X85.447 Y71.742 E0.48584
G1 X85.805 Y71.541 E0.50632
G1 X86.979 Y70.949 E0.57192
G1 X87.652 Y70.631 E0.60905
G1 X88.857 Y70.097 E0.67481
G1 X90.110 Y69.614 E0.74180
G1 X91.692 Y69.073 E0.82522
G1 X93.256 Y68.622 E0.90643
G1 X93.669 Y68.507 E0.92781
G1 X94.955 Y68.218 E0.99357
G1 X95.684 Y68.073 E1.03065
G1 X96.986 Y67.847 E1.09658
G1 X98.317 Y67.684 E1.16348
G1 X99.983 Y67.542 E1.24690
G1 X101.618 Y67.484 E1.32852
G1 X102.045 Y67.475 E1.34983
G1 X103.730 Y67.515 E1.43392
G1 X105.068 Y67.614 E1.50086
G1 X106.731 Y67.801 E1.58435
G1 X108.400 Y68.072 E1.66870
G1 X110.053 Y68.425 E1.75303
G1 X111.667 Y68.854 E1.83635
G1 X112.393 Y69.074 E1.87420
G1 X113.646 Y69.487 E1.94002
G1 X115.224 Y70.097 E2.02442
G1 X116.768 Y70.781 E2.10867
G1 X118.280 Y71.541 E2.19310
G1 X119.752 Y72.375 E2.27751
G1 X121.180 Y73.280 E2.36185
G1 X122.563 Y74.253 E2.44621
G1 X123.896 Y75.294 E2.53060
G1 X125.175 Y76.398 E2.61489
G1 X126.400 Y77.563 E2.69923
G1 X127.567 Y78.789 E2.78367
G1 X128.670 Y80.069 E2.86797
G1 X129.711 Y81.400 E2.95227
G1 X130.684 Y82.784 E3.03668
G1 X131.590 Y84.212 E3.12105
G1 X132.423 Y85.685 E3.20548
G1 X133.183 Y87.194 E3.28977
G1 X133.868 Y88.740 E3.37413
G1 X134.477 Y90.318 E3.45852
G1 X135.007 Y91.924 E3.54289
G1 X135.458 Y93.552 E3.62717
G1 X135.829 Y95.203 E3.71159
G1 X136.117 Y96.868 E3.79590
G1 X136.325 Y98.546 E3.88025
G1 X136.449 Y100.232 E3.96459
G1 X136.491 Y101.924 E4.04903
G1 X136.449 Y103.615 E4.13342
G1 X136.325 Y105.301 E4.21777
G1 X136.117 Y106.979 E4.30212
G1 X135.829 Y108.644 E4.38642
G1 X135.458 Y110.295 E4.47085
G1 X135.007 Y111.924 E4.55517
G1 X134.477 Y113.530 E4.63955
G1 X133.868 Y115.108 E4.72394
G1 X133.183 Y116.654 E4.80830
G1 X132.423 Y118.164 E4.89264
G1 X131.589 Y119.635 E4.97700
G1 X130.684 Y121.063 E5.06134
G1 X129.711 Y122.446 E5.14571
G1 X128.670 Y123.779 E5.23009
G1 X127.567 Y125.058 E5.31435
G1 X126.400 Y126.284 E5.39879
G1 X125.175 Y127.450 E5.48317
G1 X123.896 Y128.554 E5.56746
G1 X122.562 Y129.594 E5.65185
G1 X121.180 Y130.567 E5.73617
G1 X119.752 Y131.472 E5.82052
G1 X118.280 Y132.306 E5.90493
G1 X116.769 Y133.066 E5.98931
G1 X115.224 Y133.751 E6.07362
G1 X113.646 Y134.360 E6.15801
G1 X112.041 Y134.890 E6.24234
G1 X110.809 Y135.230 E6.30610
G1 X110.809 Y135.231 E6.30615
G1 X110.410 Y135.341 E6.32680
G1 X108.760 Y135.710 E6.41115
G1 X107.442 Y135.940 E6.47790
G1 X105.782 Y136.163 E6.56146
G1 X104.098 Y136.305 E6.64577
G1 X102.465 Y136.364 E6.72730
G1 X102.036 Y136.373 E6.74871
G1 X100.758 Y136.342 E6.81248
G1 X100.349 Y136.331 E6.83290
G1 X99.069 Y136.238 E6.89692
G1 X98.658 Y136.206 E6.91749
G1 X97.335 Y136.044 E6.98399
G1 X95.736 Y135.784 E7.06481
G1 X95.317 Y135.710 E7.08604
G1 X94.014 Y135.419 E7.15265
G1 X92.393 Y134.988 E7.23633
G1 X90.784 Y134.475 E7.32058
G1 X89.200 Y133.884 E7.40493
G1 X87.698 Y133.237 E7.48652
G1 X87.309 Y133.063 E7.50778
G1 X86.115 Y132.464 E7.57443
G1 X84.668 Y131.665 E7.65689
G1 X84.016 Y131.273 E7.69485
G1 X82.900 Y130.567 E7.76073
G1 X81.805 Y129.794 E7.82760
G1 X80.475 Y128.780 E7.91104
G1 X79.200 Y127.704 E7.99428
G1 X78.638 Y127.194 E8.03214
G1 X77.680 Y126.284 E8.09806
G1 X76.756 Y125.311 E8.16500
G1 X75.650 Y124.057 E8.24842
G1 X74.596 Y122.734 E8.33281
G1 X73.609 Y121.363 E8.41709
G1 X72.689 Y119.946 E8.50138
G1 X71.850 Y118.502 E8.58470
G1 X71.493 Y117.832 E8.62257
G1 X70.898 Y116.653 E8.68846
G1 X70.355 Y115.425 E8.75545
G1 X69.737 Y113.873 E8.83879
G1 X69.189 Y112.272 E8.92321
G1 X68.738 Y110.707 E9.00447
G1 X68.624 Y110.295 E9.02580
G1 X68.335 Y109.009 E9.09156
G1 X68.190 Y108.280 E9.12864
G1 X67.964 Y106.978 E9.19457
G1 X67.801 Y105.647 E9.26147
G1 X67.661 Y104.002 E9.34383
G1 X67.624 Y103.243 E9.38174
G1 X67.590 Y101.925 E9.44752
G1 X67.622 Y100.640 E9.51165
G1 X67.633 Y100.230 E9.53211
G1 X67.731 Y98.897 E9.59880
G1 X67.918 Y97.234 E9.68229
G1 X68.189 Y95.564 E9.76669
G1 X68.537 Y93.932 E9.84994
G1 X68.723 Y93.195 E9.88787
G1 X69.074 Y91.924 E9.95365
G1 X69.495 Y90.651 E10.02054
G1 X70.080 Y89.084 E10.10399
G1 X70.727 Y87.582 E10.18558
G1 X70.901 Y87.192 E10.20689
G1 X71.490 Y86.018 E10.27242
G1 X71.841 Y85.362 E10.30954
G1 X72.492 Y84.212 E10.37547
G1 X73.199 Y83.096 E10.44138
G1 X73.611 Y82.481 E10.47831
G1 X74.370 Y81.402 E10.54412
G1 X75.196 Y80.345 E10.61105
G1 X76.261 Y79.083 E10.69343
G1 X76.771 Y78.521 E10.73130
G1 X77.680 Y77.564 E10.79715
G1 F2400 E6.79715
G0 F9000 X80.368 Y80.251
;TYPE:WALL-INNER
G1 F2400 E10.79715
G1 F1800 X81.226 Y79.436 E10.85618
G1 X81.459 Y79.215 E10.87221
G1 X82.346 Y78.448 E10.93071
G1 X83.528 Y77.506 E11.00612
G1 X84.758 Y76.621 E11.08171
G1 X85.281 Y76.271 E11.11311
G1 X86.292 Y75.630 E11.17283
G1 X87.581 Y74.901 E11.24671
G1 X88.653 Y74.361 E11.30660
G1 X89.227 Y74.089 E11.33829
G1 X90.298 Y73.614 E11.39674
G1 X91.408 Y73.186 E11.45609
G1 X92.848 Y72.694 E11.53201
G1 X94.287 Y72.279 E11.60673
G1 X95.742 Y71.936 E11.68131
G1 X96.374 Y71.810 E11.71346
G1 X97.532 Y71.608 E11.77211
G1 X98.717 Y71.463 E11.83167
G1 X100.207 Y71.337 E11.90627
G1 X101.729 Y71.283 E11.98225
G1 X102.040 Y71.276 E11.99777
G1 X103.555 Y71.312 E12.07337
G1 X104.712 Y71.398 E12.13126
G1 X106.215 Y71.566 E12.20671
G1 X107.690 Y71.806 E12.28126
G1 X109.170 Y72.122 E12.35676
G1 X110.637 Y72.512 E12.43250
G1 X111.239 Y72.695 E12.46389
G1 X112.366 Y73.066 E12.52308
G1 X113.766 Y73.607 E12.59796
G1 X115.158 Y74.224 E12.67392
G1 X116.483 Y74.890 E12.74791
G1 X117.797 Y75.635 E12.82327
G1 X119.068 Y76.440 E12.89833
G1 X120.301 Y77.308 E12.97356
G1 X121.486 Y78.233 E13.04856
G1 X122.612 Y79.205 E13.12277
G1 X123.712 Y80.252 E13.19853
G1 X124.749 Y81.340 E13.27352
G1 X125.741 Y82.492 E13.34936
G1 X126.656 Y83.663 E13.42351
G1 X127.524 Y84.896 E13.49873
G1 X128.329 Y86.166 E13.57375
G1 X129.070 Y87.474 E13.64875
G1 X129.753 Y88.833 E13.72463
G1 X130.351 Y90.181 E13.79821
G1 X130.898 Y91.598 E13.87398
G1 X131.374 Y93.041 E13.94979
G1 X131.775 Y94.490 E14.02480
G1 X132.098 Y95.930 E14.09843
G1 X132.360 Y97.441 E14.17494
G1 X132.542 Y98.918 E14.24918
G1 X132.652 Y100.405 E14.32357
G1 X132.690 Y101.922 E14.39928
G1 X132.652 Y103.439 E14.47499
G1 X132.542 Y104.929 E14.54952
G1 X132.360 Y106.406 E14.62377
G1 X132.099 Y107.911 E14.69997
G1 X131.775 Y109.357 E14.77390
G1 X131.374 Y110.807 E14.84896
G1 X130.898 Y112.250 E14.92477
G1 X130.351 Y113.667 E15.00055
G1 X129.753 Y115.015 E15.07412
G1 X129.070 Y116.373 E15.14996
G1 X128.329 Y117.680 E15.22491
G1 X127.524 Y118.951 E15.29997
G1 X126.656 Y120.184 E15.37520
G1 X125.731 Y121.369 E15.45020
G1 X124.760 Y122.495 E15.52438
G1 X123.712 Y123.596 E15.60021
G1 X122.612 Y124.643 E15.67598
G1 X121.486 Y125.615 E15.75019
G1 X120.302 Y126.539 E15.82512
G1 X119.068 Y127.407 E15.90039
G1 X117.797 Y128.212 E15.97545
G1 X116.483 Y128.957 E16.05081
G1 X115.140 Y129.632 E16.12580
G1 X113.783 Y130.234 E16.19986
G1 X112.366 Y130.781 E16.27564
G1 X110.929 Y131.255 E16.35113
G1 X109.502 Y131.650 E16.42500
G1 X108.007 Y131.984 E16.50143
G1 X106.874 Y132.182 E16.55881
G1 X105.363 Y132.385 E16.63487
G1 X103.877 Y132.510 E16.70927
G1 X102.352 Y132.565 E16.78540
G1 X102.042 Y132.572 E16.80087
G1 X100.856 Y132.543 E16.86006
G1 X100.524 Y132.534 E16.87663
G1 X99.357 Y132.449 E16.93500
G1 X97.859 Y132.279 E17.01022
G1 X96.377 Y132.038 E17.08513
G1 X94.912 Y131.726 E17.15986
G1 X93.463 Y131.341 E17.23465
G1 X92.020 Y130.881 E17.31022
G1 X90.621 Y130.359 E17.38471
G1 X89.223 Y129.756 E17.46067
G1 X87.888 Y129.102 E17.53484
G1 X86.563 Y128.371 E17.61033
G1 X86.016 Y128.042 E17.64218
G1 X85.009 Y127.405 E17.70163
G1 X84.057 Y126.733 E17.75976
G1 X82.860 Y125.820 E17.83487
G1 X81.702 Y124.843 E17.91046
G1 X81.218 Y124.404 E17.94306
G1 X80.368 Y123.597 E18.00153
G1 X79.565 Y122.750 E18.05976
G1 X78.560 Y121.611 E18.13554
G1 X77.623 Y120.436 E18.21052
G1 X76.749 Y119.221 E18.28519
G1 X75.928 Y117.956 E18.36043
G1 X75.165 Y116.643 E18.43619
G1 X74.862 Y116.075 E18.46831
G1 X74.337 Y115.032 E18.52657
G1 X73.855 Y113.943 E18.58598
G1 X73.306 Y112.565 E18.65999
G1 X72.816 Y111.134 E18.73545
G1 X72.395 Y109.671 E18.81140
G1 X72.051 Y108.214 E18.88609
G1 X71.927 Y107.590 E18.91783
G1 X71.725 Y106.432 E18.97647
G1 X71.580 Y105.244 E19.03618
G1 X71.452 Y103.738 E19.11159
G1 X71.422 Y103.110 E19.14296
G1 X71.391 Y101.922 E19.20224
G1 X71.421 Y100.739 E19.26128
G1 X71.430 Y100.407 E19.27785
G1 X71.514 Y99.260 E19.33523
G1 X71.683 Y97.750 E19.41104
G1 X71.922 Y96.280 E19.48534
G1 X72.242 Y94.781 E19.56181
G1 X72.395 Y94.171 E19.59318
G1 X72.707 Y93.041 E19.65167
G1 X73.084 Y91.901 E19.71157
G1 X73.608 Y90.498 E19.78629
G1 X74.205 Y89.113 E19.86154
G1 X74.341 Y88.809 E19.87815
G1 X74.861 Y87.773 E19.93598
G1 X75.167 Y87.200 E19.96839
G1 X75.752 Y86.167 E20.02762
G1 X76.387 Y85.165 E20.08680
G1 X76.741 Y84.637 E20.11851
G1 X77.414 Y83.678 E20.17697
G1 X78.153 Y82.733 E20.23682
G1 X79.128 Y81.578 E20.31223
G1 X79.551 Y81.112 E20.34362
G1 X80.368 Y80.251 E20.40284
G0 F9000 X91.592 Y92.086
G1 F1800 X90.930 Y92.843 E20.45301
G1 X90.246 Y93.748 E20.50961
G1 X89.635 Y94.707 E20.56634
G1 X89.161 Y95.595 E20.61656
G1 X88.700 Y96.630 E20.67308
G1 X88.363 Y97.578 E20.72328
G1 X88.061 Y98.672 E20.77990
G1 X87.870 Y99.660 E20.83010
G1 X87.734 Y100.786 E20.88669
G1 X87.692 Y101.773 E20.93597
G1 X87.688 Y101.926 E20.94361
G1 X87.724 Y102.927 E20.99358
G1 X87.832 Y103.924 E21.04361
G1 X88.032 Y105.040 E21.10018
G1 X88.286 Y106.014 E21.15040
G1 X88.651 Y107.088 E21.20699
G1 X89.040 Y107.997 E21.25632
G1 X89.568 Y109.023 E21.31388
G1 X90.096 Y109.875 E21.36389
G1 X90.759 Y110.795 E21.42047
G1 X91.410 Y111.562 E21.47066
G1 X92.203 Y112.372 E21.52721
G1 X92.960 Y113.034 E21.57738
G1 X93.865 Y113.719 E21.63401
G1 X94.824 Y114.330 E21.69074
G1 X95.712 Y114.803 E21.74093
G1 X96.747 Y115.265 E21.79748
G1 X97.696 Y115.601 E21.84771
G1 X98.789 Y115.903 E21.90428
G1 X99.777 Y116.094 E21.95449
G1 X100.902 Y116.230 E22.01102
G1 X101.890 Y116.273 E22.06036
G1 X102.043 Y116.277 E22.06799
G1 X103.044 Y116.240 E22.11797
G1 X104.041 Y116.133 E22.16799
G1 X105.157 Y115.932 E22.22457
G1 X106.130 Y115.678 E22.27474
G1 X107.205 Y115.314 E22.33136
G1 X108.115 Y114.924 E22.38075
G1 X109.139 Y114.397 E22.43821
G1 X109.992 Y113.869 E22.48826
G1 X110.912 Y113.206 E22.54484
G1 X111.679 Y112.553 E22.59509
G1 X112.489 Y111.761 E22.65161
G1 X113.151 Y111.004 E22.70178
G1 X113.835 Y110.100 E22.75834
G1 X114.376 Y109.252 E22.80852
G1 X114.919 Y108.256 E22.86512
G1 X115.381 Y107.216 E22.92189
G1 X115.718 Y106.269 E22.97204
G1 X116.020 Y105.175 E23.02866
G1 X116.211 Y104.187 E23.07886
G1 X116.347 Y103.062 E23.13540
G1 X116.389 Y102.075 E23.18469
G1 X116.393 Y101.922 E23.19232
G1 X116.357 Y100.921 E23.24229
G1 X116.249 Y99.923 E23.29238
G1 X116.049 Y98.807 E23.34894
G1 X115.795 Y97.834 E23.39911
G1 X115.431 Y96.759 E23.45573
G1 X115.035 Y95.835 E23.50589
G1 X114.514 Y94.827 E23.56250
G1 X113.986 Y93.972 E23.61263
G1 X113.322 Y93.052 E23.66924
G1 X112.671 Y92.285 E23.71943
G1 X111.877 Y91.475 E23.77601
G1 X111.121 Y90.814 E23.82612
G1 X110.216 Y90.129 E23.88274
G1 X109.369 Y89.588 E23.93288
G1 X108.373 Y89.045 E23.98948
G1 X107.333 Y88.583 E24.04625
G1 X106.385 Y88.246 E24.09645
G1 X105.292 Y87.945 E24.15301
G1 X104.304 Y87.754 E24.20321
G1 X103.179 Y87.618 E24.25975
G1 X102.192 Y87.575 E24.30904
G1 X102.039 Y87.571 E24.31667
G1 X101.037 Y87.608 E24.36670
G1 X100.040 Y87.715 E24.41672
G1 X98.924 Y87.916 E24.47330
G1 X97.951 Y88.169 E24.52345
G1 X96.876 Y88.534 E24.58009
G1 X95.952 Y88.929 E24.63023
G1 X94.944 Y89.450 E24.68684
G1 X94.089 Y89.979 E24.73700
G1 X93.169 Y90.642 E24.79357
G1 X92.402 Y91.293 E24.84376
G1 X91.592 Y92.086 E24.90032
G0 F9000 X91.883 Y92.361
;TYPE:WALL-OUTER
G1 F1800 X91.241 Y93.096 E24.94900
G1 X90.575 Y93.977 E25.00410
G1 X89.980 Y94.909 E25.05927
G1 X89.520 Y95.770 E25.10797
G1 X89.072 Y96.779 E25.16305
G1 X88.745 Y97.699 E25.21176
G1 X88.451 Y98.763 E25.26683
G1 X88.265 Y99.722 E25.31557
G1 X88.133 Y100.819 E25.37069
G1 X88.092 Y101.788 E25.41908
G1 X88.088 Y101.925 E25.42592
G1 X88.123 Y102.898 E25.47449
G1 X88.228 Y103.867 E25.52312
G1 X88.423 Y104.954 E25.57822
G1 X88.669 Y105.899 E25.62693
G1 X89.025 Y106.945 E25.68206
G1 X89.406 Y107.836 E25.73040
G1 X89.915 Y108.824 E25.78585
G1 X90.429 Y109.652 E25.83447
G1 X91.074 Y110.548 E25.88955
G1 X91.706 Y111.292 E25.93826
G1 X92.478 Y112.081 E25.99333
G1 X93.213 Y112.723 E26.04202
G1 X94.094 Y113.390 E26.09714
G1 X95.026 Y113.985 E26.15231
G1 X95.887 Y114.444 E26.20099
G1 X96.896 Y114.893 E26.25609
G1 X97.816 Y115.219 E26.30478
G1 X98.880 Y115.513 E26.35985
G1 X99.839 Y115.699 E26.40859
G1 X100.935 Y115.831 E26.46366
G1 X101.905 Y115.873 E26.51210
G1 X102.042 Y115.877 E26.51894
G1 X103.015 Y115.841 E26.56752
G1 X103.984 Y115.737 E26.61614
G1 X105.071 Y115.541 E26.67124
G1 X106.015 Y115.295 E26.71991
G1 X107.062 Y114.940 E26.77507
G1 X107.954 Y114.558 E26.82348
G1 X108.940 Y114.050 E26.87882
G1 X109.769 Y113.536 E26.92748
G1 X110.665 Y112.891 E26.98256
G1 X111.409 Y112.258 E27.03130
G1 X112.198 Y111.486 E27.08637
G1 X112.840 Y110.751 E27.13506
G1 X113.506 Y109.871 E27.19011
G1 X114.031 Y109.049 E27.23878
G1 X114.560 Y108.079 E27.29390
G1 X115.009 Y107.068 E27.34909
G1 X115.336 Y106.148 E27.39780
G1 X115.630 Y105.084 E27.45287
G1 X115.816 Y104.125 E27.50161
G1 X115.948 Y103.029 E27.55668
G1 X115.989 Y102.060 E27.60507
G1 X115.993 Y101.923 E27.61191
G1 X115.958 Y100.950 E27.66048
G1 X115.853 Y99.980 E27.70916
G1 X115.658 Y98.893 E27.76425
G1 X115.412 Y97.949 E27.81292
G1 X115.057 Y96.902 E27.86808
G1 X114.673 Y96.006 E27.91671
G1 X114.166 Y95.024 E27.97185
G1 X113.653 Y94.195 E28.02049
G1 X113.007 Y93.299 E28.07560
G1 X112.375 Y92.555 E28.12430
G1 X111.602 Y91.766 E28.17941
G1 X110.868 Y91.125 E28.22802
G1 X109.987 Y90.458 E28.28315
G1 X109.165 Y89.933 E28.33181
G1 X108.196 Y89.404 E28.38689
G1 X107.185 Y88.955 E28.44208
G1 X106.265 Y88.628 E28.49079
G1 X105.201 Y88.335 E28.54585
G1 X104.242 Y88.149 E28.59459
G1 X103.146 Y88.017 E28.64966
G1 X102.177 Y87.975 E28.69805
G1 X102.040 Y87.971 E28.70489
G1 X101.066 Y88.007 E28.75352
G1 X100.097 Y88.111 E28.80214
G1 X99.010 Y88.307 E28.85724
G1 X98.066 Y88.552 E28.90590
G1 X97.019 Y88.908 E28.96107
G1 X96.123 Y89.291 E29.00969
G1 X95.141 Y89.798 E29.06482
G1 X94.312 Y90.312 E29.11349
G1 X93.416 Y90.957 E29.16857
G1 X92.672 Y91.589 E29.21727
G1 X91.883 Y92.361 E29.27234
G0 F9000 X91.676 Y92.146
G0 X79.490 Y81.029
G0 X79.261 Y80.837
G1 F1800 X80.082 Y79.972 E29.33184
G1 X81.194 Y78.916 E29.40835
G1 X82.089 Y78.142 E29.46738
G1 X83.280 Y77.192 E29.54339
G1 X84.519 Y76.300 E29.61955
G1 X85.067 Y75.933 E29.65246
G1 X86.082 Y75.289 E29.71243
G1 X87.401 Y74.544 E29.78800
G1 X88.473 Y74.004 E29.84789
G1 X89.065 Y73.724 E29.88056
G1 X90.154 Y73.241 E29.94000
G1 X91.275 Y72.809 E29.99993
G1 X92.719 Y72.315 E30.07607
G1 X94.180 Y71.894 E30.15193
G1 X94.501 Y71.805 E30.16855
G1 X95.663 Y71.544 E30.22796
G1 X96.305 Y71.416 E30.26062
G1 X97.479 Y71.212 E30.32007
G1 X98.671 Y71.066 E30.37999
G1 X100.182 Y70.937 E30.45564
G1 X101.715 Y70.883 E30.53217
G1 X102.040 Y70.876 E30.54839
G1 X103.569 Y70.912 E30.62469
G1 X104.749 Y70.999 E30.68372
G1 X106.274 Y71.171 E30.76029
G1 X107.767 Y71.413 E30.83575
G1 X109.266 Y71.734 E30.91223
G1 X110.740 Y72.125 E30.98831
G1 X111.364 Y72.315 E31.02085
G1 X112.496 Y72.688 E31.08032
G1 X113.927 Y73.241 E31.15685
G1 X115.311 Y73.854 E31.23237
G1 X116.682 Y74.543 E31.30892
G1 X118.007 Y75.294 E31.38491
G1 X119.287 Y76.105 E31.46051
G1 X120.541 Y76.988 E31.53702
G1 X121.742 Y77.926 E31.61305
G1 X122.888 Y78.915 E31.68857
G1 X123.992 Y79.965 E31.76458
